Assets/Icons/interaction/arrows-vertical.svg

<svg enable-background="new 0 0 60 60" viewBox="0 0 60 60" xmlns="http://www.w3.org/2000/svg"><path d="m30.17 42.71-10.67 10.67v-47.88c0-1.38-1.12-2.5-2.5-2.5-.28 0-.5.22-.5.5v49.88l-10.67-10.67c-.98-.98-2.56-.98-3.54 0-.2.2-.2.51 0 .71l14.29 14.29c.78.78 2.05.78 2.83 0l14.29-14.29c.2-.2.2-.51 0-.71-.97-.98-2.55-.98-3.53 0z"/><path d="m57.71 16.59-14.3-14.3c-.78-.78-2.05-.78-2.83 0l-14.29 14.3c-.2.2-.2.51 0 .71.98.98 2.56.98 3.54 0l10.67-10.68v47.88c0 1.38 1.12 2.5 2.5 2.5.28 0 .5-.22.5-.5v-49.88l10.67 10.67c.98.98 2.56.98 3.54 0 .19-.19.19-.51 0-.7z"/></svg>

<?xml version="1.0" encoding="utf-8"?>
<!-- Generator: Adobe Illustrator 21.1.0, SVG Export Plug-In . SVG Version: 6.00 Build 0)  -->
<svg version="1.1" id="eps_1_" xmlns="http://www.w3.org/2000/svg" xmlns:xlink="http://www.w3.org/1999/xlink" x="0px" y="0px"
	 viewBox="0 0 60 60" style="enable-background:new 0 0 60 60;" xml:space="preserve">
<g>
	<path d="M30.17,42.71L19.5,53.38V5.5C19.5,4.12,18.38,3,17,3c-0.28,0-0.5,0.22-0.5,0.5v49.88L5.83,42.71
		c-0.98-0.98-2.56-0.98-3.54,0c-0.2,0.2-0.2,0.51,0,0.71l14.29,14.29c0.78,0.78,2.05,0.78,2.83,0L33.7,43.42
		c0.2-0.2,0.2-0.51,0-0.71C32.73,41.73,31.15,41.73,30.17,42.71z"/>
	<path d="M57.71,16.59l-14.3-14.3c-0.78-0.78-2.05-0.78-2.83,0l-14.29,14.3c-0.2,0.2-0.2,0.51,0,0.71c0.98,0.98,2.56,0.98,3.54,0
		L40.5,6.62V54.5c0,1.38,1.12,2.5,2.5,2.5c0.28,0,0.5-0.22,0.5-0.5V6.62l10.67,10.67c0.98,0.98,2.56,0.98,3.54,0
		C57.9,17.1,57.9,16.78,57.71,16.59z"/>
</g>
</svg>
